icons-rebrand/svg/webex-teams-bold.svg

<svg xmlns="http://www.w3.org/2000/svg" width="32" height="32" viewBox="0 0 32 32"><path d="M30.0138 18.8168C29.9861 17.9184 29.7049 17.0462 29.2027 16.3008C28.7006 15.5553 27.9979 14.9671 27.1758 14.6038C27.5169 14.1168 27.7179 13.5455 27.7569 12.9522C27.7958 12.3589 27.6712 11.7662 27.3967 11.2388C27.1222 10.7114 26.7083 10.2694 26.1999 9.96091C25.6916 9.65243 25.1084 9.48931 24.5138 9.48931C23.9192 9.48931 23.336 9.65243 22.8277 9.96091C22.3194 10.2694 21.9055 10.7114 21.631 11.2388C21.3564 11.7662 21.2319 12.3589 21.2708 12.9522C21.3098 13.5455 21.5107 14.1168 21.8518 14.6038C21.4858 14.7838 21.1408 15.0038 20.8228 15.2598C20.3837 15.0078 19.9249 14.7917 19.4508 14.6138C20.1778 13.9261 20.6818 13.036 20.8974 12.0588C21.113 11.0816 21.0305 10.0621 20.6604 9.13235C20.2903 8.20257 19.6497 7.40523 18.8215 6.84348C17.9933 6.28174 17.0156 5.98145 16.0148 5.98145C15.0141 5.98145 14.0364 6.28174 13.2082 6.84348C12.38 7.40523 11.7394 8.20257 11.3693 9.13235C10.9992 10.0621 10.9167 11.0816 11.1323 12.0588C11.3479 13.036 11.8518 13.9261 12.5788 14.6138C12.0978 14.7938 11.6318 15.0138 11.1868 15.2708C10.8668 15.0108 10.5168 14.7888 10.1468 14.6068C10.4877 14.1199 10.6885 13.5488 10.7274 12.9557C10.7662 12.3627 10.6417 11.7703 10.3672 11.2431C10.0928 10.7159 9.67894 10.2741 9.17081 9.96572C8.66268 9.65738 8.0797 9.49434 7.48534 9.49434C6.89098 9.49434 6.308 9.65738 5.79987 9.96572C5.29174 10.2741 4.87793 10.7159 4.60347 11.2431C4.32902 11.7703 4.20443 12.3627 4.24329 12.9557C4.28215 13.5488 4.48295 14.1199 4.82384 14.6068C4.00173 14.9701 3.29908 15.5583 2.79693 16.3038C2.29478 17.0492 2.01361 17.9214 1.98584 18.8198C1.98584 19.4958 2.35184 20.4168 4.09384 20.9598C5.05684 21.2338 6.05284 21.3778 7.05384 21.3898C7.03019 21.6161 7.01718 21.8433 7.01484 22.0708C7.01484 23.0328 7.56884 24.3608 10.2048 25.2188C12.0918 25.7688 14.0498 26.0328 16.0148 25.9998C20.1668 25.9998 25.0148 24.9718 25.0148 22.0708C25.0148 21.8408 24.9978 21.6148 24.9768 21.3908C26.5938 21.3398 30.0138 20.9778 30.0138 18.8168ZM24.5138 11.4988C24.8454 11.4988 25.1633 11.6305 25.3977 11.8649C25.6321 12.0993 25.7638 12.4173 25.7638 12.7488C25.7638 13.0803 25.6321 13.3982 25.3977 13.6327C25.1633 13.8671 24.8454 13.9988 24.5138 13.9988C24.1823 13.9988 23.8644 13.8671 23.63 13.6327C23.3955 13.3982 23.2638 13.0803 23.2638 12.7488C23.2638 12.4173 23.3955 12.0993 23.63 11.8649C23.8644 11.6305 24.1823 11.4988 24.5138 11.4988ZM13.0148 10.9998C13.0148 10.2041 13.3309 9.44108 13.8935 8.87847C14.4561 8.31586 15.2192 7.99979 16.0148 7.99979C16.8105 7.99979 17.5736 8.31586 18.1362 8.87847C18.6988 9.44108 19.0148 10.2041 19.0148 10.9998C19.0148 11.7954 18.6988 12.5585 18.1362 13.1211C17.5736 13.6837 16.8105 13.9998 16.0148 13.9998C15.2192 13.9998 14.4561 13.6837 13.8935 13.1211C13.3309 12.5585 13.0148 11.7954 13.0148 10.9998ZM7.48484 11.5018C7.64899 11.5017 7.81155 11.534 7.96323 11.5967C8.11491 11.6595 8.25275 11.7515 8.36887 11.8675C8.48499 11.9836 8.57712 12.1213 8.64 12.273C8.70288 12.4246 8.73527 12.5871 8.73534 12.7513C8.73541 12.9154 8.70314 13.078 8.64038 13.2297C8.57762 13.3814 8.4856 13.5192 8.36958 13.6353C8.25355 13.7514 8.11579 13.8436 7.96416 13.9064C7.81252 13.9693 7.64999 14.0017 7.48584 14.0018C7.15432 14.0018 6.83638 13.8701 6.60196 13.6357C6.36754 13.4012 6.23584 13.0833 6.23584 12.7518C6.23584 12.4203 6.36754 12.1023 6.60196 11.8679C6.83638 11.6335 7.15432 11.5018 7.48584 11.5018H7.48484ZM7.53184 19.4018H7.48584C6.27997 19.5045 5.06921 19.2712 3.98784 18.7278C4.04784 17.2168 5.59384 16.0018 7.48584 16.0018C8.18965 15.9985 8.88226 16.178 9.49584 16.5228C8.63705 17.326 7.96639 18.3091 7.53184 19.4018ZM16.0148 23.9998C11.6778 23.9998 9.01484 22.8768 9.01484 22.0708C9.01484 18.7238 12.1548 15.9998 16.0148 15.9998C19.8748 15.9998 23.0148 18.7238 23.0148 22.0708C23.0148 22.8768 20.3518 23.9998 16.0148 23.9998ZM24.5148 19.3978H24.4968C24.0597 18.3004 23.3844 17.3137 22.5198 16.5088C23.1299 16.1709 23.8165 15.9953 24.5138 15.9988C26.4058 15.9988 27.9508 17.2128 28.0118 18.7248C26.9303 19.2676 25.7196 19.5005 24.5138 19.3978H24.5148Z"/></svg>

<svg data-name="Layer 1" xmlns="http://www.w3.org/2000/svg" viewBox="0 0 32 32"><path d="M30.014 18.817a4.767 4.767 0 0 0-2.838-4.217 3.25 3.25 0 1 0-5.324 0 5.539 5.539 0 0 0-1.029.656 9.38 9.38 0 0 0-1.372-.646 5 5 0 1 0-6.872 0 9.4 9.4 0 0 0-1.391.657 5.578 5.578 0 0 0-1.04-.664 3.25 3.25 0 1 0-5.324 0 4.767 4.767 0 0 0-2.838 4.217c0 .676.366 1.6 2.108 2.141a11.306 11.306 0 0 0 2.96.428 7.343 7.343 0 0 0-.039.682c0 .962.554 2.289 3.191 3.148a19.542 19.542 0 0 0 5.809.781c4.152 0 9-1.028 9-3.929 0-.23-.017-.456-.038-.681 1.617-.05 5.037-.412 5.037-2.573Zm-6.383-6.952a1.248 1.248 0 1 1-.367.884 1.25 1.25 0 0 1 .367-.884Zm-10.11-2.532A3 3 0 1 1 13.015 11a3 3 0 0 1 .506-1.667ZM6.6 11.868a1.249 1.249 0 1 1-.366.884 1.252 1.252 0 0 1 .366-.884Zm.93 7.534h-.044a6.552 6.552 0 0 1-3.5-.674C4.048 17.217 5.594 16 7.486 16a4.066 4.066 0 0 1 2.01.521A7.978 7.978 0 0 0 7.532 19.4ZM16.015 24c-4.337 0-7-1.123-7-1.929 0-3.347 3.14-6.071 7-6.071s7 2.724 7 6.071c0 .806-2.663 1.929-7 1.929Zm8.5-4.6H24.5a7.981 7.981 0 0 0-1.977-2.889A4.068 4.068 0 0 1 24.514 16c1.892 0 3.437 1.214 3.5 2.726a6.552 6.552 0 0 1-3.5.674Z" style="fill:#0f0f0f"/></svg>
